packages/ui-icons/src/System/24/Price_24.svg

<svg viewBox="0 0 32 32" xmlns="http://www.w3.org/2000/svg">
<path fill-rule="evenodd" clip-rule="evenodd" d="M16 28C22.6274 28 28 22.6274 28 16C28 9.37258 22.6274 4 16 4C9.37258 4 4 9.37258 4 16C4 22.6274 9.37258 28 16 28ZM11 21V19H13V17H11V15H13V9H17C18.0609 9 19.0783 9.42143 19.8284 10.1716C20.5786 10.9217 21 11.9391 21 13C21 14.0609 20.5786 15.0783 19.8284 15.8284C19.0783 16.5786 18.0609 17 17 17H15V19H19V21H15V23H13V21H11ZM18.4142 11.5858C18.0391 11.2107 17.5304 11 17 11H15V15H17C17.5304 15 18.0391 14.7893 18.4142 14.4142C18.7893 14.0391 19 13.5304 19 13C19 12.4696 18.7893 11.9609 18.4142 11.5858Z"/>
</svg>

<svg viewBox="0 0 32 32" xmlns="http://www.w3.org/2000/svg"><path fill-rule="evenodd" clip-rule="evenodd" d="M16 28c6.627 0 12-5.373 12-12S22.627 4 16 4 4 9.373 4 16s5.373 12 12 12Zm-5-7v-2h2v-2h-2v-2h2V9h4a4 4 0 1 1 0 8h-2v2h4v2h-4v2h-2v-2h-2Zm7.414-9.414A2 2 0 0 0 17 11h-2v4h2a2 2 0 0 0 1.414-3.414Z"/></svg>
